src/asset/24px/receive.svg

<svg width="24" height="24" viewBox="0 0 24 24" fill="none" xmlns="http://www.w3.org/2000/svg">
<path fill-rule="evenodd" clip-rule="evenodd" d="M4 14C4.55228 14 5 14.4477 5 15V18C5 18.5523 5.44772 19 6 19H18C18.5523 19 19 18.5523 19 18V15C19 14.4477 19.4477 14 20 14C20.5523 14 21 14.4477 21 15V18C21 19.6568 19.6569 21 18 21H6C4.34315 21 3 19.6568 3 18V15C3 14.4477 3.44772 14 4 14Z" fill="currentColor"/>
<path fill-rule="evenodd" clip-rule="evenodd" d="M18.9154 9.59768C19.075 9.96068 19.0051 10.3837 18.7371 10.6761L13.2369 16.6761C13.0474 16.8827 12.78 17.0003 12.4997 17.0003C12.2194 17.0003 11.952 16.8827 11.7626 16.676L6.26283 10.676C5.99487 10.3837 5.92497 9.96065 6.08466 9.59766C6.24434 9.23467 6.60344 9.00033 7 9.00033H9.0095C9.01398 8.60096 9.01449 8.22639 8.99373 7.85263C8.95768 7.20377 8.85994 6.70616 8.66807 6.32241C8.35592 5.6981 7.59468 5.00017 5.00006 5.00033C4.59562 5.00036 4.23098 4.75676 4.07617 4.38312C3.92135 4.00948 4.00684 3.57938 4.29278 3.29334L5 4.00033C4.29278 3.29334 4.29383 3.2923 4.29383 3.2923L4.2949 3.29123L4.29712 3.28902L4.30188 3.28435L4.31263 3.27397C4.32035 3.2666 4.32919 3.25835 4.33917 3.24927C4.35913 3.23111 4.38366 3.20969 4.413 3.18552C4.4717 3.13716 4.54949 3.07796 4.6483 3.01207C4.84628 2.88004 5.12644 2.72261 5.5035 2.57173C6.25941 2.26927 7.38724 2 9 2C10.5789 2 12.3868 2.25595 13.7894 3.50278C15.0558 4.62857 15.8192 6.40312 15.9717 9.00033H18C18.3966 9.00033 18.7557 9.23468 18.9154 9.59768ZM9.22331 4.00208C9.75952 4.37331 10.1671 4.84829 10.4569 5.42801C10.8276 6.16929 10.9486 6.98425 10.9906 7.74169C11.0196 8.2626 11.0124 8.82884 11.0056 9.35953C11.0028 9.58131 11 9.79687 11 10.0003C11 10.5526 10.5523 11.0003 10 11.0003H9.27316L12.4998 14.5204L15.7267 11.0003H15C14.4477 11.0003 14 10.5526 14 10.0003C14 7.14944 13.2878 5.73292 12.4606 4.99755C11.658 4.28402 10.5461 4.02723 9.22331 4.00208Z" fill="currentColor"/>
</svg>

<svg width="24" height="24" fill="none" xmlns="http://www.w3.org/2000/svg"><path fill-rule="evenodd" clip-rule="evenodd" d="M4 14a1 1 0 011 1v3a1 1 0 001 1h12a1 1 0 001-1v-3a1 1 0 112 0v3a3 3 0 01-3 3H6a3 3 0 01-3-3v-3a1 1 0 011-1z" fill="currentColor"/><path fill-rule="evenodd" clip-rule="evenodd" d="M18.915 9.598a1 1 0 01-.178 1.078l-5.5 6a1 1 0 01-1.474 0l-5.5-6A1 1 0 017 9h2.01c.004-.399.004-.774-.016-1.147-.036-.65-.134-1.147-.326-1.53C8.356 5.697 7.595 5 5 5a1 1 0 01-.707-1.707L5 4c-.707-.707-.706-.708-.706-.708l.003-.003.005-.005.01-.01a1.517 1.517 0 01.101-.088c.059-.049.136-.108.235-.174a4.66 4.66 0 01.856-.44C6.258 2.269 7.386 2 9 2c1.579 0 3.387.256 4.79 1.503 1.266 1.126 2.03 2.9 2.182 5.497H18a1 1 0 01.915.598zM9.223 4.002c.537.371.944.846 1.234 1.426.37.741.492 1.556.534 2.314.029.52.021 1.087.015 1.618-.003.221-.006.437-.006.64a1 1 0 01-1 1h-.727l3.227 3.52L15.727 11H15a1 1 0 01-1-1c0-2.85-.712-4.267-1.54-5.002-.802-.714-1.914-.97-3.237-.996z" fill="currentColor"/></svg>
